public/images/developer-days-2/ticket-plate-bottom.svg

<svg width="388" height="420" viewBox="0 0 388 420" fill="none" xmlns="http://www.w3.org/2000/svg">
<g clip-path="url(#clip0_3_3)">
<mask id="mask0_3_3" style="mask-type:alpha" maskUnits="userSpaceOnUse" x="0" y="0" width="388" height="420">
<path fill-rule="evenodd" clip-rule="evenodd" d="M22 0C9.84974 0 0 9.84976 0 22L0 398C0 410.15 9.84974 420 22 420H118.268C124.466 420 130.377 417.385 134.547 412.799L161.453 383.201C165.623 378.615 171.534 376 177.732 376H210.268C216.466 376 222.377 378.615 226.547 383.201L253.453 412.799C257.623 417.385 263.534 420 269.732 420H366C378.15 420 388 410.15 388 398V22C388 9.84973 378.15 0 366 0H22Z" fill="#080808"/>
</mask>
<g mask="url(#mask0_3_3)">
<rect y="420" width="420" height="388" transform="rotate(-90 0 420)" fill="#080808"/>
</g>
</g>
<defs>
<clipPath id="clip0_3_3">
<rect width="420" height="388" fill="white" transform="matrix(0 -1 1 0 0 420)"/>
</clipPath>
</defs>
</svg>

<svg xmlns="http://www.w3.org/2000/svg" fill="none" viewBox="0 0 388 420">
  <g clip-path="url(#a)">
    <mask id="b" width="388" height="420" x="0" y="0" maskUnits="userSpaceOnUse" style="mask-type:alpha">
      <path fill="#080808" fill-rule="evenodd" d="M22 0A22 22 0 0 0 0 22v376a22 22 0 0 0 22 22h96.3a22 22 0 0 0 16.2-7.2l27-29.6a22 22 0 0 1 16.2-7.2h32.6a22 22 0 0 1 16.2 7.2l27 29.6a22 22 0 0 0 16.2 7.2H366a22 22 0 0 0 22-22V22a22 22 0 0 0-22-22H22Z" clip-rule="evenodd"/>
    </mask>
    <g mask="url(#b)">
      <path fill="#080808" d="M0 420V0h388v420z"/>
    </g>
  </g>
  <defs>
    <clipPath id="a">
      <path fill="#fff" d="M0 420V0h388v420z"/>
    </clipPath>
  </defs>
</svg>
